X:1
T:Freuet Euch, Ihr Christen, 87.78.77.88.88
T:Freuet Euch, Ihr Christen, 87.78.77.88.88
T:Andreas Hammerschmidt, 1646
T:Public Domain Courtesy of the Cyber Hymnal™
C:Andreas Hammerschmidt, 1646
Z:Public Domain
Z:Courtesy of the Cyber Hymnal™
%%score ( 1 2 ) ( 3 4 )
L:1/8
Q:1/4=110
M:4/4
K:C
V:1 treble 
V:2 treble 
V:3 bass 
V:4 bass 
V:1
 [FA]3 [FA] [EG]2 [DF]2 | [DE]2 [^CE]2 D2 D2 | [DF]3 [EG] [FA]2 [FA]2 | [FG]2 [EG]2 F4 | %4
 [CE]2 [CF]2 [DG]2 [DF]2 | [DE]2 [^CE]2 D4 | [DA]2 [DA]2 [D_B]2 [DB]2 | [CG]2 [CG]2 [CA]2 [CA]2 | %8
 [DF]2 [CF]2 [D_B]2 [DB]2 | [DA]2 [DA]2 [B,G]4 | [CE]2 [CF]2 [DG]2 [DF]2 | [DE]2 [^CE]2 D4 | %12
 [Gd]2 [Gd]2 [Ec]2 [Ec]2 | [EB]2 B2 [^CA]2 [CA]2 | [FA]2 [FA]2 [F_B]2 [FA]2 | %15
 [FG]2 [EG]2 [CF]2 [CF]2 | [DF]2 [DF]2 [D_B]2 [DB]2 | [EG]2 [EG]2 [Ec]2 [Ec]2 | %18
 [FA]2 [EA]2 [Dd]2 [Gd]2 | [E^c]2 [Ec]2 [^Fd]2 [Fd]2 |] %20
V:2
 x8 | x4 D2 D2 | x8 | x4 F4 | x8 | x4 D4 | x8 | x8 | x8 | x8 | x8 | x4 D4 | x8 | x2 (ED) x4 | x8 | %15
 x8 | x8 | x8 | x8 | x8 |] %20
V:3
 [D,D]3 [A,,C] [C,C]2 [D,A,]2 | [G,,_B,]2 [A,,A,]2 [D,^F,]2 [D,F,]2 | %2
 [D,A,]3 [C,C] [F,C]2 [A,,C]2 | [_B,,D]2 [C,C]2 [F,,A,]4 | [C,G,]2 [A,,A,]2 [G,,_B,]2 [D,A,]2 | %5
 [A,,A,]2 [A,,E,]2 [D,^F,]4 | [D,F,]2 [D,F,]2 [_B,,G,]2 (G,F,) | %7
 [C,E,]2 [C,E,]2 [F,,F,]2 [F,,F,]2 | [_B,,F,]2 [A,,A,]2 [G,,_B,]2 G,2 | [D,G,]2 [D,^F,]2 [G,,G,]4 | %10
 [C,G,]2 [A,,A,]2 [G,,_B,]2 [D,A,]2 | [A,,A,]2 [A,,E,]2 [D,^F,]4 | %12
 [G,,G,B,]2 [G,,G,B,]2 [A,,A,]2 [C,A,]2 | [E,A,]2 [E,^G,]2 [A,,A,]2 [A,,A,]2 | %14
 [F,C]2 [F,C]2 [_B,,D]2 [F,C]2 | [C,C]2 (C_B,) [F,,A,]2 [F,,A,]2 | %16
 [_B,,_B,]2 B,2 [G,,B,]2 [G,,B,]2 | [C,C]2 C2 [A,,C]2 [A,,C]2 | %18
 [D,D]2 [C,A,]2 [_B,,_B,]2 [G,,G,B,]2 | [A,,A,]2 [A,,A,]2 [D,A,]2 [D,A,]2 |] %20
V:4
 x8 | x8 | x8 | x8 | x8 | x8 | x6 _B,,2 | x8 | x6 (_B,,C,) | x8 | x8 | x8 | x8 | x8 | x8 | %15
 x2 C,2 x4 | x2 _B,,A,, x4 | x2 (C,_B,,) x4 | x8 | x8 |] %20

